X:6316
T:Strike the Light-Guitar. CJF.156
O:england
M:3/4
L:1/8
Q:120
S: C.J.Fox MS, 1829/33, Beverley,E.Yorks.
R:Air
A:East Yorkshire
B:Kidson Coll.Mitchell Lib.M1805
N:I have not lined this tune since I cannot make head or tail of it. - PJ
K:G
B|B3BBB|BBB BB>B|B3Bd>c|B2A3G|\
G3GGG|GGG GG>G|B3AGF|E2z2(DB)|
B3BBB|BBB BB>B|B3Bd>c|B2A3G|
G3GGG|\GGG GG>G|F>GA2e>6c|hd4zd|
F>GA3c|e>dB3G|F>GA2e>d|d4d2|
e>dB3B|d>cA3G|F>GA2d2|\B4zd|
d>Bg3f|f>ec3A|F>Ad3F|G4z2|
AD/D/ D DDD|BG/G/ G GGG|A>^GA>Bc>d|\
B4G2|AD/D/ D DDD|BG/G/ G GGhG|A>^GA>Bc>d|G4||


